src/main/resources/icons/GOTemplateIcons/META-INF/pluginIcon.svg

<svg xmlns="http://www.w3.org/2000/svg" xmlns:xlink="http://www.w3.org/1999/xlink" width="40" height="40" viewBox="0 0 40 40">
  <defs>
    <polygon id="gotemplate-a" points=".858 0 23.143 0 23.143 36 .858 36"/>
    <polygon id="gotemplate-c" points="0 36 26 36 26 0 0 0"/>
  </defs>
  <g fill="none" fill-rule="evenodd">
    <g transform="translate(7 2)">
      <g transform="translate(1)">
        <mask id="gotemplate-b" fill="#fff">
          <use xlink:href="#gotemplate-a"/>
        </mask>
        <path fill="#77BBE2" d="M9.6704335,35.8142182 L14,33 L14,27 L6,21.4 L1.35569624,21.4 C1.37271397,21.1268207 1.38847881,20.8499985 1.4026,20.5713 L1.3776,20.5713 C1.4336,19.8183 1.4756,18.9793 1.4756,18.0003 C1.4756,13.9993 0.8576,9.2443 0.8576,9.2443 C0.8576,4.1593 5.4996,0.0003 11.9996,0.0003 C18.4996,0.0003 23.1426,4.1593 23.1426,9.2443 C23.1426,9.2443 22.5246,14.6663 22.5246,18.0003 C22.5246,18.9163 22.5756,19.7793 22.6426,20.5713 L22.6106,20.5713 C22.7796,23.5633 23.1426,26.7553 23.1426,26.7553 C23.1426,31.8403 18.4996,36.0003 11.9996,36.0003 C11.1928121,36.0003 10.4146488,35.9362107 9.6704335,35.8142182 Z" mask="url(#gotemplate-b)"/>
      </g>
      <path fill="#8BC5E6" d="M26,5.6665 C26,6.9555 25.03,7.9995 23.833,7.9995 C22.637,7.9995 21.667,6.9555 21.667,5.6665 C21.667,4.3775 22.637,3.3335 23.833,3.3335 C25.03,3.3335 26,4.3775 26,5.6665"/>
      <path fill="#3B89BE" d="M25.0781,5.1685 C25.3081,5.7225 24.8541,6.4805 24.0641,6.8625 C23.2731,7.2435 22.4461,7.1035 22.2161,6.5495 C21.9851,5.9955 22.4391,5.2365 23.2291,4.8555 C24.0191,4.4745 24.8481,4.6145 25.0781,5.1685"/>
      <path fill="#8BC5E6" d="M0,5.6665 C0,6.9555 0.97,7.9995 2.167,7.9995 C3.363,7.9995 4.333,6.9555 4.333,5.6665 C4.333,4.3775 3.363,3.3335 2.167,3.3335 C0.97,3.3335 0,4.3775 0,5.6665"/>
      <path fill="#3B89BE" d="M0.9219,5.1685 C0.6919,5.7225 1.1459,6.4805 1.9359,6.8625 C2.7269,7.2435 3.5539,7.1035 3.7839,6.5495 C4.0149,5.9955 3.5609,5.2365 2.7709,4.8555 C1.9809,4.4745 1.1519,4.6145 0.9219,5.1685"/>
      <path fill="#FFF" d="M12.333,10.6025 C12.333,12.7765 10.542,14.5385 8.333,14.5385 C6.124,14.5385 4.333,12.7765 4.333,10.6025 C4.333,8.4285 6.124,6.6665 8.333,6.6665 C10.542,6.6665 12.333,8.4285 12.333,10.6025"/>
      <path fill="#FFF" d="M12.333,10.6025 C12.333,12.7765 10.542,14.5385 8.333,14.5385 C6.124,14.5385 4.333,12.7765 4.333,10.6025 C4.333,8.4285 6.124,6.6665 8.333,6.6665 C10.542,6.6665 12.333,8.4285 12.333,10.6025"/>
      <path fill="#000" d="M10.3828,10.5908 C10.3828,11.6528 9.5828,12.5148 8.5958,12.5148 C7.6098,12.5148 6.8098,11.6528 6.8098,10.5908 C6.8098,9.5288 7.6098,8.6668 8.5958,8.6668 C9.5828,8.6668 10.3828,9.5288 10.3828,10.5908"/>
      <path fill="#FFF" d="M9.5127 9.6665C9.5127 9.9855 9.2727 10.2445 8.9767 10.2445 8.6797 10.2445 8.4397 9.9855 8.4397 9.6665 8.4397 9.3475 8.6797 9.0885 8.9767 9.0885 9.2727 9.0885 9.5127 9.3475 9.5127 9.6665M21.1572 10.6025C21.1572 12.7765 19.3662 14.5385 17.1572 14.5385 14.9472 14.5385 13.1572 12.7765 13.1572 10.6025 13.1572 8.4285 14.9472 6.6665 17.1572 6.6665 19.3662 6.6665 21.1572 8.4285 21.1572 10.6025"/>
      <path fill="#FFF" d="M21.1572,10.6025 C21.1572,12.7765 19.3662,14.5385 17.1572,14.5385 C14.9472,14.5385 13.1572,12.7765 13.1572,10.6025 C13.1572,8.4285 14.9472,6.6665 17.1572,6.6665 C19.3662,6.6665 21.1572,8.4285 21.1572,10.6025"/>
      <path fill="#000" d="M19.2061,10.5908 C19.2061,11.6528 18.4061,12.5148 17.4201,12.5148 C16.4331,12.5148 15.6331,11.6528 15.6331,10.5908 C15.6331,9.5288 16.4331,8.6668 17.4201,8.6668 C18.4061,8.6668 19.2061,9.5288 19.2061,10.5908"/>
      <path fill="#FFF" d="M18.3359,9.6665 C18.3359,9.9855 18.0959,10.2445 17.7999,10.2445 C17.5029,10.2445 17.2639,9.9855 17.2639,9.6665 C17.2639,9.3475 17.5029,9.0885 17.7999,9.0885 C18.0959,9.0885 18.3359,9.3475 18.3359,9.6665"/>
      <mask id="gotemplate-d" fill="#fff">
        <use xlink:href="#gotemplate-c"/>
      </mask>
      <polygon fill="#FFF" points="11.761 18 14.238 18 14.238 16 11.761 16" mask="url(#gotemplate-d)"/>
      <path fill="#B7937F" d="M15.4766,15.3335 C15.4766,16.0695 14.3676,16.6665 12.9996,16.6665 C11.6326,16.6665 10.5236,16.0695 10.5236,15.3335 C10.5236,14.5975 11.6326,14.0005 12.9996,14.0005 C14.3676,14.0005 15.4766,14.5975 15.4766,15.3335" mask="url(#gotemplate-d)"/>
      <path fill="#000" d="M14.2383,14.6445 C14.2383,15.3935 13.6753,15.3335 12.9793,15.3335 C12.2843,15.3335 11.7203,15.3935 11.7203,14.6445 C11.7203,13.8955 12.2843,13.2895 12.9793,13.2895 C13.6753,13.2895 14.2383,13.8955 14.2383,14.6445" mask="url(#gotemplate-d)"/>
      <path fill="#B7937F" d="M26 18.9048C26 19.8248 25.307 20.5718 24.452 20.5718 23.598 20.5718 22.904 19.8248 22.904 18.9048 22.904 17.9848 23.598 17.2378 24.452 17.2378 25.307 17.2378 26 17.9848 26 18.9048M3.0957 18.9048C3.0957 19.8248 2.4027 20.5718 1.5477 20.5718.6937 20.5718-.0003 19.8248-.0003 18.9048-.0003 17.9848.6937 17.2378 1.5477 17.2378 2.4027 17.2378 3.0957 17.9848 3.0957 18.9048M23.3953 34.333C23.3953 35.254 22.7023 36 21.8473 36 20.9933 36 20.2993 35.254 20.2993 34.333 20.2993 33.413 20.9933 32.667 21.8473 32.667 22.7023 32.667 23.3953 33.413 23.3953 34.333" mask="url(#gotemplate-d)"/>
    </g>
    <g fill="#231F20" fill-opacity=".7" transform="translate(2 25)">
      <polygon points="0 8 0 5.333 8 .001 8 2.667 2.133 6.667 8 10.667 8 13.334"/>
      <polygon points="0 8 0 5.333 8 .001 8 2.667 2.133 6.667 8 10.667 8 13.334" transform="matrix(-1 0 0 1 18 0)"/>
    </g>
  </g>
</svg>

<svg xmlns="http://www.w3.org/2000/svg" xmlns:xlink="http://www.w3.org/1999/xlink" width="40" height="40" viewBox="0 0 40 40"><rect id="frame" width="40" height="40" fill="none"/><defs><path id="a" d="M.858 0h22.285v36H.858z"/><path id="c" d="M0 36h26V0H0z"/></defs><g fill="none" fill-rule="evenodd"><g transform="translate(7 2)"><g transform="translate(1)"><mask id="b" fill="#fff"><use xlink:href="#a"/></mask><path fill="#77BBE2" d="M9.67 35.814L14 33v-6l-8-5.6H1.356c.017-.273.032-.55.047-.829h-.025c.056-.753.098-1.592.098-2.57 0-4.002-.618-8.757-.618-8.757C.858 4.16 5.5 0 12 0c6.5 0 11.143 4.16 11.143 9.244 0 0-.618 5.422-.618 8.756 0 .916.05 1.78.118 2.571h-.032c.169 2.992.532 6.184.532 6.184C23.143 31.84 18.5 36 12 36c-.807 0-1.585-.064-2.33-.186z" mask="url(#b)"/></g><path fill="#8BC5E6" d="M26 5.667C26 6.955 25.03 8 23.833 8c-1.196 0-2.166-1.045-2.166-2.333 0-1.29.97-2.333 2.166-2.333C25.03 3.333 26 4.377 26 5.667"/><path fill="#3B89BE" d="M25.078 5.168c.23.554-.224 1.313-1.014 1.694s-1.618.242-1.848-.313c-.23-.554.223-1.313 1.013-1.694.79-.38 1.62-.24 1.85.313"/><path fill="#8BC5E6" d="M0 5.667C0 6.955.97 8 2.167 8c1.196 0 2.166-1.045 2.166-2.333 0-1.29-.97-2.333-2.166-2.333C.97 3.333 0 4.377 0 5.667"/><path fill="#3B89BE" d="M.922 5.168c-.23.554.224 1.313 1.014 1.694s1.618.242 1.848-.313c.23-.554-.223-1.313-1.013-1.694-.79-.38-1.62-.24-1.85.313"/><path fill="#FFF" d="M12.333 10.602c0 2.175-1.791 3.937-4 3.937s-4-1.762-4-3.937c0-2.174 1.791-3.936 4-3.936s4 1.762 4 3.936"/><path fill="#FFF" d="M12.333 10.602c0 2.175-1.791 3.937-4 3.937s-4-1.762-4-3.937c0-2.174 1.791-3.936 4-3.936s4 1.762 4 3.936"/><path fill="#000" d="M10.383 10.59c0 1.063-.8 1.925-1.787 1.925-.986 0-1.786-.862-1.786-1.924 0-1.062.8-1.924 1.786-1.924.987 0 1.787.862 1.787 1.924"/><path fill="#FFF" d="M9.513 9.666c0 .32-.24.579-.536.579-.297 0-.537-.26-.537-.579 0-.319.24-.578.537-.578.296 0 .536.26.536.579m11.644.935c0 2.175-1.79 3.937-4 3.937s-4-1.762-4-3.937c0-2.174 1.79-3.936 4-3.936s4 1.762 4 3.936"/><path fill="#FFF" d="M21.157 10.602c0 2.175-1.79 3.937-4 3.937s-4-1.762-4-3.937c0-2.174 1.79-3.936 4-3.936s4 1.762 4 3.936"/><path fill="#000" d="M19.206 10.59c0 1.063-.8 1.925-1.786 1.925-.987 0-1.787-.862-1.787-1.924 0-1.062.8-1.924 1.787-1.924.986 0 1.786.862 1.786 1.924"/><path fill="#FFF" d="M18.336 9.666c0 .32-.24.579-.536.579-.297 0-.536-.26-.536-.579 0-.319.239-.578.536-.578.296 0 .536.26.536.579"/><mask id="d" fill="#fff"><use xlink:href="#c"/></mask><path fill="#FFF" mask="url(#d)" d="M11.761 18h2.477v-2h-2.477z"/><path fill="#B7937F" d="M15.477 15.334c0 .736-1.11 1.332-2.477 1.332-1.367 0-2.476-.596-2.476-1.332C10.524 14.598 11.633 14 13 14c1.368 0 2.477.597 2.477 1.333" mask="url(#d)"/><path fill="#000" d="M14.238 14.645c0 .748-.563.689-1.259.689-.695 0-1.259.06-1.259-.69 0-.748.564-1.354 1.26-1.354.695 0 1.258.606 1.258 1.355" mask="url(#d)"/><path fill="#B7937F" d="M26 18.905c0 .92-.693 1.667-1.548 1.667-.854 0-1.548-.747-1.548-1.667s.694-1.667 1.548-1.667c.855 0 1.548.747 1.548 1.667m-22.904 0c0 .92-.693 1.667-1.548 1.667-.854 0-1.548-.747-1.548-1.667s.694-1.667 1.548-1.667c.855 0 1.548.747 1.548 1.667m20.3 15.428c0 .921-.694 1.667-1.549 1.667-.854 0-1.548-.746-1.548-1.667 0-.92.694-1.666 1.548-1.666.855 0 1.548.746 1.548 1.666" mask="url(#d)"/></g><g fill="#231F20" fill-opacity=".7"><path d="M2 33v-2.667l8-5.332v2.666l-5.867 4 5.867 4v2.667z"/><path d="M20 33v-2.667l-8-5.332v2.666l5.867 4-5.867 4v2.667z"/></g></g></svg>
